X: 1
T: Oidhche Mhath Leibh
T: Goodnight to You
O: as taught by Alasdair Fraser
R: air, waltz
Z: 2019 John Chambers <jc:trillian.mit.edu>
M: 3/4
L: 1/8
K: Am
[|\
"Am"A4c2 | "C"E4E2 | "G"G4A2 | "Em"BG-G4 | "Am"A4G2 | "F"Ee-e4 | "G"dB-B2 | "Am"A6 ||
"Am"A4c2 | "C"E4E2 | "G"c3BA2 | "Em"BG-G4 | "Am"A4G2 | "F"Ee-e4 | "G"dB-B2 | "Am"A6 |]
"C"c4d2 | "C"e4e2 | "G"g4d2 | "Am"e2A4 | "C"c4d2 | "C"e4e2 | "G"e3dc2 | "Em"B6 ||
"Em"B2e4 | "F"A4B2 | "F"c3BA2 | "G"GE-E4 | "G"G4A2 | "G"Be-e4 | "Em"dB-B4 | "Am"A6 |]
